src/icons/command-echo.svg

<svg enable-background="new 0 0 14 11" viewBox="0 0 14 11" xmlns="http://www.w3.org/2000/svg"><path d="m4.2 2.8c0-.4-.3-.7-.7-.7-.2 0-.4 0-.5.2l-2.8 2.7c-.1.1-.2.3-.2.5s.1.4.2.5l2.8 2.7c.1.1.3.2.5.2.4 0 .7-.3.7-.7 0-.2-.1-.4-.2-.5l-2.3-2.2 2.3-2.3c.1-.1.2-.3.2-.4zm4.2-2.8c-.3 0-.6.2-.7.5l-2.8 9.6v.2c0 .4.3.7.7.7.3 0 .6-.2.7-.5l2.8-9.6c0-.1 0-.1 0-.2 0-.4-.3-.7-.7-.7zm5.4 5-2.8-2.7c-.1-.1-.3-.2-.5-.2-.4 0-.7.3-.7.7 0 .2.1.4.2.5l2.3 2.3-2.3 2.2c-.1.1-.2.3-.2.4 0 .4.3.7.7.7.2 0 .4-.1.5-.2l2.8-2.7c.1-.1.2-.3.2-.5s-.1-.4-.2-.5z" fill="#4d5969"/></svg>

<?xml version="1.0" encoding="utf-8"?>
<!-- Generator: Adobe Illustrator 20.1.0, SVG Export Plug-In . SVG Version: 6.00 Build 0)  -->
<svg version="1.1" id="Layer_1" xmlns="http://www.w3.org/2000/svg" xmlns:xlink="http://www.w3.org/1999/xlink" x="0px" y="0px"
	 viewBox="0 0 14 11" style="enable-background:new 0 0 14 11;" xml:space="preserve">
<style type="text/css">
	.st0{fill:#4D5969;}
</style>
<title>HDL/Icon/Standard/Command/echo</title>
<desc>Created with Sketch.</desc>
<g id="Colors">
	<g id="Command-Icons" transform="translate(-122.000000, -409.000000)">
		<g id="Echo" transform="translate(101.000000, 397.000000)">
			<g id="HDL_x2F_Icon_x2F_Standard_x2F_Command_x2F_echo" transform="translate(21.000000, 12.000000)">
				<path id="Shape" class="st0" d="M4.2,2.8c0-0.4-0.3-0.7-0.7-0.7C3.3,2.1,3.1,2.1,3,2.3L0.2,5C0.1,5.1,0,5.3,0,5.5S0.1,5.9,0.2,6
					L3,8.7c0.1,0.1,0.3,0.2,0.5,0.2c0.4,0,0.7-0.3,0.7-0.7c0-0.2-0.1-0.4-0.2-0.5L1.7,5.5L4,3.2C4.1,3.1,4.2,2.9,4.2,2.8z M8.4,0
					C8.1,0,7.8,0.2,7.7,0.5l-2.8,9.6c0,0.1,0,0.1,0,0.2c0,0.4,0.3,0.7,0.7,0.7c0.3,0,0.6-0.2,0.7-0.5l2.8-9.6c0-0.1,0-0.1,0-0.2
					C9.1,0.3,8.8,0,8.4,0z M13.8,5L11,2.3c-0.1-0.1-0.3-0.2-0.5-0.2c-0.4,0-0.7,0.3-0.7,0.7c0,0.2,0.1,0.4,0.2,0.5l2.3,2.3L10,7.8
					C9.9,7.9,9.8,8.1,9.8,8.2c0,0.4,0.3,0.7,0.7,0.7c0.2,0,0.4-0.1,0.5-0.2L13.8,6C13.9,5.9,14,5.7,14,5.5S13.9,5.1,13.8,5z"/>
			</g>
		</g>
	</g>
</g>
</svg>
